X: 3118
T: MISS JOHNSTON ROBINSON
Q:"Reel."
R: Reel.
%R:reel
B: James Kerr "Merry Melodies" v.3 p.14 #118
Z: 2016 John Chambers <jc:trillian.mit.edu>
N: The 2nd strain has initial repeat but no final repeat; fixed.
M: C
L: 1/8
K: A
a2 |\
e2 A/A/A AGEF | =G2(AF) GFED |\
A2 A/A/A ABcd |[1 eaga eaga |[2 edcB A2 |:\
(cd) |\
ea a/a/a (b/a/=g) ef | =gfaf gfeB |\
dBcd efaf | edcB A2 :|

%%sep 1 1 500
%%sep 1 1 500

